wp-content/themes/sd-accesslasers/public/images/application/icons/application-9.svg

<?xml version="1.0" encoding="UTF-8"?>
<svg width="120px" height="120px" viewBox="0 0 120 120" version="1.1" xmlns="http://www.w3.org/2000/svg" xmlns:xlink="http://www.w3.org/1999/xlink">
    <!-- Generator: Sketch 55 (78076) - https://sketchapp.com -->
    <title>9</title>
    <desc>Created with Sketch.</desc>
    <g id="Home" stroke="none" stroke-width="1" fill="none" fill-rule="evenodd">
        <g id="AL_Home-Copy" transform="translate(-1457.000000, -3155.000000)" fill="currentColor" fill-rule="nonzero">
            <g id="Features" transform="translate(195.000000, 1665.000000)">
                <g id="Icons">
                    <g id="2" transform="translate(1123.000000, 1420.000000)">
                        <g id="icon" transform="translate(139.000000, 70.000000)">
                            <g id="laser" transform="translate(10.000000, 8.000000)">
                                <path d="M29.8786825,67.6765823 C29.8786825,68.5265351 29.1848239,69.2146682 28.3296028,69.2146682 C27.4735749,69.2146682 26.780523,68.5265351 26.780523,67.6765823 C26.780523,66.8274307 27.4735749,66.1384963 28.3296028,66.1384963 C29.1848239,66.1384963 29.8786825,66.8274307 29.8786825,67.6765823 Z" id="Path"></path>
                                <path d="M85.171955,72.0136643 L81.3993001,72.0136643 C80.5440792,72.0136643 79.8502204,72.7017974 79.8502204,73.5517502 C79.8502204,74.4009018 80.5440792,75.0898362 81.3993001,75.0898362 L85.171955,75.0898362 C92.1589499,75.0898362 97.8429432,80.73349 97.8429432,87.6708984 L97.8429432,101.923828 L83.8366805,101.923828 L83.8366805,98.7146758 C83.8366805,97.8647232 83.1436286,97.1765899 82.2876007,97.1765899 C81.4323796,97.1765899 80.7385209,97.8647232 80.7385209,98.7146758 L80.7385209,101.923828 L20.1307756,101.923828 L20.1307756,92.1489717 C20.9109632,91.9751358 21.6201511,91.4920806 22.050989,90.7510757 L23.79209,87.7558135 C24.2197007,87.0204163 23.9663615,86.0799409 23.2249008,85.655365 C22.4842472,85.2307891 21.5370496,85.4823303 21.1094389,86.2177276 L19.4344964,89.0984346 C18.3872541,88.4984207 14.9857331,86.5485764 14.0933985,86.0366821 L27.5784606,62.84523 L32.9195583,65.9069824 L24.7239583,80.0020981 C24.2963477,80.7374954 24.5496869,81.6779709 25.2903405,82.1033477 C26.0309944,82.5271225 26.978999,82.2755813 27.4066094,81.5401841 L31.1574801,75.0898362 L32.8630815,75.0898362 C33.2132382,79.2026138 34.989839,83.0237961 37.961329,85.9790039 C44.8716769,92.8523254 56.0694259,92.8531265 62.9805805,85.9790039 C65.9520706,83.0237961 67.7278645,79.2026138 68.078828,75.0898362 L74.1702613,75.0898362 C75.0262894,75.0898362 75.719341,74.4009018 75.719341,73.5517502 C75.719341,72.7017974 75.0262894,72.0136643 74.1702613,72.0136643 L64.5748418,72.0136643 C64.3069801,72.0136643 64.0891408,71.7965698 64.0891408,71.5306091 L64.0891408,64.1902542 C69.360046,60.4099273 73.5675726,54.984169 74.038751,48.633957 L74.1307275,47.3922729 C79.8550613,47.0285796 84.4006422,42.2917556 84.4006422,36.5175247 L84.4006422,35.9671782 C84.4006422,32.3430635 81.4315726,29.3942642 77.7807467,29.3942642 L77.2458302,29.3942642 C77.0037863,28.5210801 76.4059384,27.7944946 75.6152623,27.380333 C76.7811063,11.6582107 64.570001,-8.52651283e-14 50.4709548,-8.52651283e-14 C36.383204,-8.52651283e-14 24.1591897,11.6405869 25.3266472,27.380333 C24.5351641,27.7944946 23.9373162,28.5218811 23.6952725,29.3942642 L23.1603559,29.3942642 C19.5103369,29.3942642 16.5412674,32.3430635 16.5412674,35.9671782 L16.5412674,36.5175247 C16.5412674,42.2917556 21.0868482,47.0285796 26.811182,47.3922729 C27.0362827,50.433197 27.3751437,52.9333877 29.4567198,56.4036941 L26.6675693,59.850769 C25.9454724,60.0686646 25.3411697,60.5405044 24.961968,61.1925889 L18.6696383,72.0136643 L15.7691478,72.0136643 C7.07413088,72.0136643 2.84217094e-14,79.0375901 2.84217094e-14,87.6708984 L2.84217094e-14,103.461914 C2.84217094e-14,104.311867 0.69385864,105 1.54907975,105 L99.392023,105 C100.248051,105 100.941103,104.311867 100.941103,103.461914 L100.941103,87.6708984 C100.941103,79.0375901 93.8669719,72.0136643 85.171955,72.0136643 L85.171955,72.0136643 Z M46.0318732,45.9182739 C48.9186478,51.2839507 45.0185168,57.9521943 38.7503914,57.9553985 C38.9456401,56.8250657 38.4583254,55.679512 37.4715938,55.0314331 L40.0872796,50.5333328 C40.5148901,49.7979355 40.2607441,48.8566589 39.5200905,48.432083 C38.7794366,48.0075073 37.831432,48.2590484 37.4038216,48.9952468 L34.788136,53.4933472 C33.7295981,52.9686355 32.4871069,53.1224441 31.5988065,53.8554382 C30.2707934,51.5723418 30.0949082,48.7068557 31.3244903,46.1906433 C45.1718111,46.1906433 44.8498929,46.3011933 46.0318732,45.9182739 L46.0318732,45.9182739 Z M33.5117587,56.3043594 C34.6784095,56.9732666 31.6851355,55.2573394 35.6578796,57.5340271 L33.6158374,62.7547073 L29.9795342,60.6702805 C33.1341705,56.7705918 30.165101,60.4411697 33.5117587,56.3043594 Z M35.6691749,67.3305129 C36.0596723,66.6592026 36.1492283,65.8973694 35.9854453,65.1948166 L36.4840555,63.918686 C36.606691,64.0084077 36.7293264,64.0973281 36.8527687,64.1854477 L36.8527687,71.5314102 C36.8527687,71.7973709 36.6349294,72.0136643 36.3670677,72.0136643 L32.9461833,72.0136643 L35.6691749,67.3305129 Z M64.574035,75.0898362 L64.9685662,75.0898362 C64.6272847,78.3806992 63.1742155,81.4320374 60.7876646,83.8056565 C51.9942165,92.5527192 37.2053456,86.9699478 35.9725363,75.0898362 L36.3670677,75.0898362 C38.3437579,75.0898362 39.9517351,73.493271 39.9517351,71.5306091 L39.9517351,66.1473083 C43.6057883,68.1884766 47.4752605,69.4493867 50.4709548,69.4493867 C53.4722968,69.4493867 57.3232122,68.2141113 60.9909813,66.1593247 L60.9909813,71.5314102 C60.9901744,73.493271 62.5981516,75.0898362 64.574035,75.0898362 Z M62.8337408,61.2863159 C59.5032193,63.7977219 54.3856084,66.3732148 50.4709548,66.3732148 C47.4567037,66.3732148 42.2398548,64.5251084 37.711217,60.9819031 C46.9395371,61.8118286 53.1092311,51.9416428 48.5918888,44.1574859 C49.2696112,43.3155442 49.5173026,42.573738 49.7246534,41.6701126 C49.9045726,40.8842468 51.0357234,40.8842468 51.2164494,41.6693115 L51.2826079,41.9601059 C51.8538313,44.4514846 54.0491677,46.1906433 56.6220923,46.1906433 L71.1132492,46.1906433 L70.9486595,48.4080505 C70.4863561,54.6380996 65.6664591,59.1506196 62.8337408,61.2863159 Z M81.3024826,35.9671782 L81.3024826,36.5175247 C81.3024826,39.7611236 79.3048154,42.5489043 76.4672561,43.7329102 C77.0344453,42.8765488 77.3652383,41.8535615 77.3652383,40.7544707 L77.3652383,32.470436 L77.7807467,32.470436 C79.7227441,32.470436 81.3024826,34.0389634 81.3024826,35.9671782 Z M34.2443443,10.0992966 C42.9659862,0.777854971 57.8782991,0.673713633 66.6975652,10.0992966 C70.8413535,14.5277024 73.0358832,20.2762986 72.5364663,27.0062256 L39.6701575,27.0062256 C38.8149364,27.0062256 38.1210777,27.6943589 38.1210777,28.5443115 C38.1210777,29.3934631 38.8149364,30.0823975 39.6701575,30.0823975 C76.4091657,30.0823975 74.2670788,29.9870681 74.2670788,30.2538301 L74.2670788,40.7536697 C74.2670788,42.0554351 73.2012797,43.1144714 71.8902096,43.1144714 L56.6220923,43.1144714 C55.5046572,43.1144714 54.5518118,42.3590469 54.3033134,41.2775803 L54.2371549,40.9867859 C53.8337487,39.2300034 52.2854757,38.002739 50.470148,38.002739 C48.6556268,38.002739 47.1065471,39.2300034 46.7039478,40.9867859 C46.5135401,41.8175125 46.3255527,42.2092437 45.6615463,42.7027129 C45.3541508,42.9318237 44.8474724,43.1144714 44.3190105,43.1144714 L29.0508931,43.1144714 C27.7406298,43.1144714 26.6740238,42.0554351 26.6740238,40.7536697 L26.6740238,30.2538301 C26.6740238,30.1593018 26.7514778,30.0823975 26.8458748,30.0823975 L32.4411186,30.0823975 C33.2971467,30.0823975 33.9901984,29.3934631 33.9901984,28.5443115 C33.9901984,27.6943589 33.2971467,27.0062256 32.4411186,27.0062256 L28.4054432,27.0062256 C27.9076401,20.3019333 30.0811925,14.5477295 34.2443443,10.0992966 Z M19.6394269,36.5175247 L19.6394269,35.9671782 C19.6394269,34.0389634 21.2191654,32.470436 23.1603559,32.470436 L23.5758643,32.470436 L23.5758643,40.7536697 C23.5758643,41.8535615 23.9066575,42.8765488 24.4746534,43.7329102 C21.6370941,42.5489043 19.6394269,39.7603225 19.6394269,36.5175247 Z M15.566638,90.4338455 C16.8373673,91.1620332 16.5154494,90.9777832 17.032616,91.2741851 L17.032616,101.803665 L15.566638,101.803665 L15.566638,90.4338455 Z M3.09815951,87.6708984 C3.09815951,80.73349 8.78215262,75.0898362 15.7691478,75.0898362 L16.8809353,75.0898362 L11.3429752,84.6131516 C10.5579468,85.9629822 10.934728,87.7782441 12.4684785,88.6570359 L12.4684785,101.923828 L3.09815951,101.923828 L3.09815951,87.6708984 Z" id="Shape" stroke="#596975" stroke-width="0.525"></path>
                            </g>
                        </g>
                    </g>
                </g>
            </g>
        </g>
    </g>
</svg>

<svg width="120" height="120" viewBox="0 0 120 120" version="1.1" xmlns="http://www.w3.org/2000/svg"><g id="Home" stroke="none" stroke-width="1" fill="none" fill-rule="evenodd"><g id="AL_Home-Copy" transform="translate(-1457 -3155)" fill="currentColor" fill-rule="nonzero"><g id="Features" transform="translate(195 1665)"><g id="Icons"><g id="2" transform="translate(1123 1420)"><g id="icon" transform="translate(139 70)"><g id="laser" transform="translate(10 8)"><path d="M29.879 67.677c0 .85-.694 1.538-1.55 1.538a1.543 1.543 0 0 1-1.548-1.538c0-.85.693-1.539 1.549-1.539.855 0 1.549.69 1.549 1.539z" id="Path"/><path d="M85.172 72.014h-3.773c-.855 0-1.549.688-1.549 1.538 0 .849.694 1.538 1.55 1.538h3.772c6.987 0 12.67 5.643 12.67 12.58v14.254H83.838v-3.21c0-.85-.693-1.537-1.55-1.537-.855 0-1.548.688-1.548 1.538v3.209H20.13v-9.775a2.955 2.955 0 0 0 1.92-1.398l1.741-2.995a1.531 1.531 0 0 0-.567-2.1 1.555 1.555 0 0 0-2.116.562l-1.675 2.88-5.34-3.061 13.484-23.192 5.342 3.062-8.196 14.095a1.533 1.533 0 0 0 .566 2.101 1.557 1.557 0 0 0 2.117-.563l3.75-6.45h1.706c.35 4.113 2.127 7.934 5.098 10.889 6.91 6.873 18.108 6.874 25.02 0 2.971-2.955 4.747-6.776 5.098-10.89h6.091c.856 0 1.55-.688 1.55-1.537 0-.85-.694-1.538-1.55-1.538h-9.595a.485.485 0 0 1-.486-.483v-7.34c5.271-3.781 9.479-9.207 9.95-15.557l.092-1.242c5.724-.363 10.27-5.1 10.27-10.874v-.55c0-3.625-2.97-6.574-6.62-6.574h-.535a3.263 3.263 0 0 0-1.63-2.014C76.78 11.658 64.57 0 50.47 0 36.383 0 24.159 11.64 25.327 27.38a3.264 3.264 0 0 0-1.632 2.014h-.535c-3.65 0-6.619 2.95-6.619 6.573v.55c0 5.775 4.546 10.512 10.27 10.875.225 3.041.564 5.541 2.646 9.012l-2.79 3.447a2.941 2.941 0 0 0-1.705 1.342l-6.292 10.82h-2.9C7.073 72.014 0 79.039 0 87.672v15.79c0 .85.694 1.539 1.55 1.539h97.842c.856 0 1.55-.688 1.55-1.538V87.67c0-8.633-7.075-15.657-15.77-15.657h0zm-39.14-26.096c2.887 5.366-1.013 12.034-7.282 12.037a2.9 2.9 0 0 0-1.278-2.924l2.615-4.498a1.533 1.533 0 0 0-.567-2.1 1.555 1.555 0 0 0-2.116.562l-2.616 4.498a2.944 2.944 0 0 0-3.19.362 8.126 8.126 0 0 1-.274-7.664c13.848 0 13.526.11 14.708-.273h0zm-12.52 10.386c1.166.67-1.827-1.047 2.146 1.23l-2.042 5.22-3.636-2.084 3.532-4.366zm2.157 11.027c.39-.672.48-1.434.316-2.136l.5-1.276c.122.09.244.178.368.266v7.346a.484.484 0 0 1-.486.483h-3.42l2.722-4.683zm28.905 7.759h.395a14.32 14.32 0 0 1-4.181 8.716c-8.794 8.747-23.583 3.164-24.815-8.716h.394c1.977 0 3.585-1.597 3.585-3.56v-5.383c3.654 2.041 7.523 3.302 10.519 3.302 3.001 0 6.852-1.235 10.52-3.29v5.372c0 1.962 1.607 3.559 3.583 3.559zm-1.74-13.804c-3.33 2.512-8.448 5.087-12.363 5.087-3.014 0-8.231-1.848-12.76-5.391 9.229.83 15.398-9.04 10.88-16.825.679-.841.926-1.583 1.134-2.487.18-.786 1.31-.786 1.491 0l.067.29c.57 2.491 2.766 4.23 5.34 4.23h14.49l-.164 2.218c-.463 6.23-5.283 10.743-8.115 12.878zm18.468-25.319v.55c0 3.244-1.997 6.032-4.835 7.216.567-.856.898-1.88.898-2.979V32.47h.416c1.942 0 3.521 1.569 3.521 3.497zM34.244 10.1c8.722-9.321 23.634-9.425 32.454 0 4.143 4.429 6.338 10.177 5.838 16.907H39.67c-.855 0-1.549.688-1.549 1.538 0 .85.694 1.538 1.55 1.538 36.738 0 34.596-.095 34.596.172v10.5a2.371 2.371 0 0 1-2.377 2.36H56.622a2.363 2.363 0 0 1-2.319-1.836l-.066-.291a3.838 3.838 0 0 0-3.767-2.984 3.837 3.837 0 0 0-3.766 2.984c-.19.83-.378 1.222-1.042 1.716-.308.229-.815.411-1.343.411H29.051a2.372 2.372 0 0 1-2.377-2.36v-10.5c0-.095.077-.172.172-.172h5.595c.856 0 1.55-.689 1.55-1.538 0-.85-.694-1.538-1.55-1.538h-4.036c-.497-6.704 1.676-12.458 5.84-16.907zM19.64 36.518v-.55c0-1.929 1.58-3.498 3.521-3.498h.416v8.284c0 1.1.33 2.123.899 2.979-2.838-1.184-4.836-3.973-4.836-7.215zm-4.072 53.916l1.466.84v10.53h-1.466v-11.37zM3.098 87.67c0-6.938 5.684-12.581 12.671-12.581h1.112l-5.538 9.523c-.785 1.35-.408 3.165 1.125 4.044v13.267h-9.37V87.67z" id="Shape" stroke="#596975" stroke-width=".525"/></g></g></g></g></g></g></g></svg>
